svgs/solid/garage-car.svg

<svg xmlns="http://www.w3.org/2000/svg" viewBox="0 0 640 512"><!--! Font Awesome Pro 6.2.0 by @fontawesome - https://fontawesome.com License - https://fontawesome.com/license (Commercial License) Copyright 2022 Fonticons, Inc. --><path d="M0 488V171.3c0-26.2 15.9-49.7 40.2-59.4L308.1 4.8c7.6-3.1 16.1-3.1 23.8 0L599.8 111.9c24.3 9.7 40.2 33.3 40.2 59.4V488c0 13.3-10.7 24-24 24H568c-13.3 0-24-10.7-24-24V224c0-17.7-14.3-32-32-32H128c-17.7 0-32 14.3-32 32V488c0 13.3-10.7 24-24 24H24c-13.3 0-24-10.7-24-24zM254.3 293.4L242.2 328H397.8l-12.1-34.6c-1.1-3.2-4.2-5.4-7.6-5.4H261.8c-3.4 0-6.4 2.2-7.6 5.4zM188.9 335L209 277.5c7.9-22.5 29.1-37.5 52.9-37.5H378.2c23.8 0 45 15.1 52.9 37.5L451.1 335c17.2 9.5 28.9 27.9 28.9 49v96c0 17.7-14.3 32-32 32s-32-14.3-32-32V464H224v16c0 17.7-14.3 32-32 32s-32-14.3-32-32V384c0-21.1 11.7-39.5 28.9-49zM240 424c13.3 0 24-10.7 24-24s-10.7-24-24-24s-24 10.7-24 24s10.7 24 24 24zm184-24c0-13.3-10.7-24-24-24s-24 10.7-24 24s10.7 24 24 24s24-10.7 24-24z"/></svg>

<svg xmlns="http://www.w3.org/2000/svg" viewBox="0 0 640 512"><!--! Font Awesome Pro 6.1.2 by @fontawesome - https://fontawesome.com License - https://fontawesome.com/license (Commercial License) Copyright 2022 Fonticons, Inc. --><path d="M0 488V171.3C0 145.2 15.93 121.6 40.23 111.9L308.1 4.753C315.7 1.702 324.3 1.702 331.9 4.753L599.8 111.9C624.1 121.6 640 145.2 640 171.3V488C640 501.3 629.3 512 616 512H568C554.7 512 544 501.3 544 488V223.1C544 206.3 529.7 191.1 512 191.1H128C110.3 191.1 96 206.3 96 223.1V488C96 501.3 85.25 512 72 512H24C10.75 512 0 501.3 0 488zM188.9 334.1L208.1 277.5C216.8 255.1 238 240 261.8 240H378.2C401.1 240 423.2 255.1 431 277.5L451.1 334.1C468.3 344.5 480 362.9 480 384V480C480 497.7 465.7 512 448 512C430.3 512 416 497.7 416 480V464H223.1V480C223.1 497.7 209.7 512 191.1 512C174.3 512 159.1 497.7 159.1 480V384C159.1 362.9 171.7 344.5 188.9 334.1L188.9 334.1zM242.2 328H397.8L385.7 293.4C384.6 290.2 381.6 287.1 378.2 287.1H261.8C258.4 287.1 255.4 290.2 254.3 293.4L242.2 328zM240 424C253.3 424 264 413.3 264 400C264 386.7 253.3 376 240 376C226.7 376 216 386.7 216 400C216 413.3 226.7 424 240 424zM400 376C386.7 376 376 386.7 376 400C376 413.3 386.7 424 400 424C413.3 424 424 413.3 424 400C424 386.7 413.3 376 400 376z"/></svg>
